X: 319
M: 6/8
L: 1/8
K: D
|: A |\
ded Tf2g | aba fed | BcB Tc2d | e>fe/d/ cBA |\
ded Tf2g | a2g fed | (B/c/d)B (c/d/e)c | d3 D2 :|

